X: 10491
Q: "Moderato"
M: C
L: 1/8
K: D
V: 1 clef=treble
a>g |\
f2f2 f3f | e>def d2e>f |\
gfed defg | a3g f2!segno!a>g |\
f2f2 f3f | edef d2ef |
gfed defg | f2e2 "_Fine."d2 |]\
d2 |\
defg a3a | a2b>a a3a |\
b2a2 d'3f | a3b/g/ f2a>"_D.C."g !segno!|]
V: 2 clef=treble
f>e |\
d2d2 d3d | AFAd F2A>d | edAF FAde | f3e d2!segno!f>e |
d2d2 d3d | AFAd F2Ad | edAF FAde | d2A>G "_Fine."F2 |]


